X:1
T: Margaret Graham of Inchbrakie
C:Niel Gow
R:Strathspey
Q: 128
K:Gm
M:4/4
L:1/16
|:g2|dG3 d3B d3G Gf3|cF3 c3A c3F Af3|dG3 d3B d2G2 G3g|f3d c3A G4 G2g2|
dG3 d3B d3G Gf3|cF3 c3A c3F Af3|dG3 d3B d2G2 G3g|f3d c3A G4 G2d2|
g3a b3g a3^f g3d|f3d cf3 AF3 c3A|g3a b3g a3^f gd3|fc3 f3A G4 G3d|
g3a b3g a3^f g3d|f3d cf3 AF3 c3A|GB3 Ac3 Bd3 cg3|f3d c3A G4 G2:|
